!!!COM: Mozart	
!!!OTL: Zehn Variationen in G, uber die Ariette 'Unser dummer Pobel meint' aus dem Singspiel 'Die Pilgrime von Mekka'
!!!Variation: Variation 10 Cadenza
!!!COM: Mozart
**function	**harm	**kern	**kern
*M4/4	*M4/4	*staff2	*staff1
*G:	*G:	*clefF4	*clefG2
*tb96	*	*k[f#]	*k[f#]
*	*	*met(c)	*met(c)
*	*	*M4/4	*M4/4
*	*	*G:	*G:
=-	=-	=-	=-
1D	1I64	8r	1r
.	.	(16aa#LL	.
.	.	16cccJJ	.
.	.	8bbL)	.
.	.	(16ff#L	.
.	.	16aaJJ	.
.	.	8ggL)	.
.	.	(16cc#L	.
.	.	16eeJJ	.
.	.	8ddL)	.
.	.	(16a#L	.
.	.	16ccJJ)	.
=	=	=260	=260
1D	1I64	16bLL	1r
.	.	16dd	.
.	.	16f#	.
.	.	16aJJ	.
.	.	16gLL	.
.	.	16b	.
.	.	16c#	.
.	.	16eJJ	.
.	.	16dLL	.
.	.	16g	.
*	*	*clefF4	*
.	.	16A#	.
.	.	16cJJ	.
.	.	16BLL	.
.	.	16d	.
.	.	16F#	.
.	.	16AJJ	.
=	=	=261	=261
1D	1I64	24GLL	1r
.	.	24B	.
.	.	24AJ	.
.	.	24GL	.
.	.	24F#	.
.	.	24EJJ	.
.	.	24DLL	.
.	.	24G	.
.	.	24F#J	.
.	.	24EL	.
.	.	24D	.
.	.	24CJJ	.
.	.	24BBLL	.
.	.	24E	.
.	.	24DJ	.
.	.	24CL	.
.	.	24BB	.
.	.	24AAJJ	.
.	.	24GGLL	.
.	.	24BB	.
.	.	24AAJ	.
.	.	24GGL	.
.	.	24FF#	.
.	.	24EEJJ	.
=	=	=262	=262
1D	1V7	8.DD;L	1r
.	.	16FF#Jk	.
.	.	16EELL	.
.	.	16GG	.
.	.	16FF#	.
.	.	16AAJJ	.
.	.	16GGLL	.
.	.	16BB	.
.	.	16AA	.
.	.	16CJJ	.
.	.	16BBLL	.
.	.	16D	.
.	.	16C	.
.	.	16EJJ	.
=	=	=263	=263
1D	1V7	32DLLL	1r
.	.	32F#	.
.	.	32E	.
.	.	32GJJ	.
.	.	32F#LL	.
.	.	32A	.
.	.	32G	.
.	.	32BJJJ	.
*	*	*clefG2	*
.	.	32ALLL	.
.	.	32c	.
.	.	32B	.
.	.	32dJJ	.
.	.	32cLL	.
.	.	32e	.
.	.	32d	.
.	.	32f#JJJ	.
.	.	32eLLL	.
.	.	32g	.
.	.	32f#	.
.	.	32aJJ	.
.	.	32gLL	.
.	.	32b	.
.	.	32a	.
.	.	32ccJJJ	.
.	.	32bLLL	.
.	.	32dd	.
.	.	32cc	.
.	.	32eeJJ	.
.	.	32ddLL	.
.	.	32ff#	.
.	.	32ee	.
.	.	32ggJJJ	.
=	=	=264	=264
1D	1V7	32ff#LLL	1r
.	.	32aa	.
.	.	32gg	.
.	.	32bbJJ	.
.	.	32aaLL	.
.	.	32ccc	.
.	.	32bb	.
.	.	32dddJJJ	.
.	.	[4ccc	.
.	.	16cccLL]	.
.	.	(16aa	.
.	.	16ff#	.
.	.	16ddJJ	.
.	.	16cc#LL	.
.	.	16cc	.
.	.	16a	.
.	.	16f#JJ)	.
*M3/8	*M3/8	*	*
=	=	=||	=||
*	*	*M3/8	*M3/8
4.D	4.V	16dLL	4.r
.	.	16a	.
.	.	16f#	.
.	.	16a	.
.	.	16f#	.
.	.	16aJJ	.
*	*	*	*clefG2
=	=	=265	=265
4.D	4.V7	16dLL	8cccL
.	.	16a	.
.	.	16f#	8ccc
.	.	16a	.
.	.	16f#	16cccL
.	.	16aJJ	16dddJJ
=	=	=266	=266
4.D	4.I64	16dLL	8bbL
.	.	16b	.
.	.	16g	8bb
.	.	16b	.
.	.	16g	16bbL
.	.	16bJJ	16cccJJ
=	=	=267	=267
4.D	4.V7	16dLL	8aaL
.	.	16cc	.
.	.	16a	8aa
.	.	16cc	.
.	.	16a	16aaL
.	.	16ccJJ	16bbJJ
=	=	=268	=268
4.D	4.I64	16dLL	8gg
.	.	16dd	.
.	.	16b	8r
.	.	16dd	.
.	.	16b	8r
.	.	16ddJJ	.
*	*	*	*clefF4
=	=	=269	=269
4.D	4.V65	16dLL	8F#L
.	.	16cc	.
.	.	16a	8F#
.	.	16cc	.
.	.	16a	16F#L
.	.	16ccJJ	16DJJ
=	=	=270	=270
4.D	4.I	16dLL	8GL
.	.	16b	.
.	.	16g	8G
.	.	16b	.
.	.	16g	16GL
.	.	16bJJ	16DJJ
=	=	=271	=271
4.D	4.V64	16dLL	8AL
.	.	16a	.
.	.	16f#	8A
.	.	16a	.
.	.	16f#	16AL
.	.	16aJJ	16DJJ
=	=	=272	=272
4.D	4.I6	16dLL	8B
.	.	16g	.
.	.	16f#	8r
.	.	16g	.
.	.	16f#	8r
.	.	16gJJ	.
*	*	*	*clefG2
=	=	=273	=273
4.D	4.V7	16dLL	8cccL
.	.	16a	.
.	.	16f#	8ccc
.	.	16a	.
.	.	16f#	16cccL
.	.	16aJJ	16dddJJ
=	=	=274	=274
4.D	4.i64	16dLL	8bb-L
.	.	16b-	.
.	.	16g	8bb-
.	.	16b-	.
.	.	16g	16bb-L
.	.	16b-JJ	16cccJJ
=	=	=275	=275
4.D	4.V7	16dLL	8aaL
.	.	16cc	.
.	.	16a	8aa
.	.	16cc	.
.	.	16a	16aaL
.	.	16ccJJ	16bb-JJ
=	=	=276	=276
4.D	4.i64	16dLL	8gg
.	.	16dd	.
.	.	16b-	8r
.	.	16dd	.
*	*	*	*clefF4
.	.	16b-	8r
.	.	16ddJJ	.
*	*	*	*clefF4
=	=	=277	=277
4.D	4.V65	16dLL	8F#L
.	.	16cc	.
.	.	16a	8F#
.	.	16cc	.
.	.	16a	16F#L
.	.	16ccJJ	16DJJ
=	=	=278	=278
4.D	4.i	16dLL	8GL
.	.	16b-	.
.	.	16g	8G
.	.	16b-	.
.	.	16g	16GL
.	.	16b-JJ	16DJJ
=	=	=279	=279
4.D	4.V64	16dLL	8AL
.	.	16a	.
.	.	16f#	8A
.	.	16a	.
.	.	16f#	16AL
.	.	16aJJ	16DJJ
=	=	=280	=280
4.D	4.i6	16dLL	8B
.	.	16g	.
.	.	16f#	8r
.	.	16g	.
.	.	16f#	8r
.	.	16gJJ	.
*	*	*	*clefG2
=	=	=281	=281
4.D	4.V	16dLL	8dddL
.	.	16a	.
.	.	16f#	8ddd
.	.	16a	.
.	.	16f#	16dddL
.	.	16aJJ	16aaJJ
=	=	=282	=282
4.D	4.i64	16dLL	8bb-
.	.	16b-	.
.	.	16g	8r
.	.	16b-	.
.	.	16g	8r
.	.	16b-JJ	.
*	*	*	*clefF4
=	=	=283	=283
4.D	4.V65	16dLL	8F#L
.	.	16cc	.
.	.	16a	8F#
.	.	16cc	.
.	.	16a	16F#L
.	.	16ccJJ	16DJJ
=	=	=284	=284
4.D	4.i	16dLL	8G
.	.	16b-	.
.	.	16g	8r
.	.	16b-	.
.	.	16g	8r
.	.	16b-JJ	.
*	*	*	*clefG2
=	=	=285	=285
4.D	4.V/bVI	16B-LL	8bb-L
.	.	16f	.
.	.	16d	8bb-
.	.	16f	.
.	.	16d	16bb-L
.	.	16fJJ	16ffJJ
=	=	=286	=286
4.D	4.I64/bVI	16B-LL	8gg
.	.	16g	.
.	.	16e-	8r
.	.	16g	.
.	.	16e-	8r
.	.	16gJJ	.
*	*	*	*clefF4
=	=	=287	=287
4.D	4.V65/bVI	16B-LL	8DL
.	.	16a-	.
.	.	16f	8D
.	.	16a-	.
.	.	16f	16DL
.	.	16a-JJ	16BB-JJ
=	=	=288	=288
4.D	4.I/bVI	16B-LL	8E-
.	.	16g	.
.	.	16e-	8r
.	.	16g	.
.	.	16e-	8r
.	.	16gJJ	.
*	*	*	*clefG2
=	=	=289	=289
4.D	4.V/iv	16GLL	8ggnL
.	.	16d	.
.	.	16B	8gg
.	.	16d	.
.	.	16B	16ggL
.	.	16dJJ	16ddnJJ
=	=	=290	=290
4.D	4.i64/iv	16GLL	8ee-
.	.	16e-	.
.	.	16c	8r
.	.	16e-	.
.	.	16c	8r
.	.	16e-JJ	.
*	*	*	*clefF4
=	=	=291	=291
4.D	4.V65/iv	16GLL	8BBnL
.	.	16f	.
.	.	16d	8BB
.	.	16f	.
.	.	16d	16BBL
.	.	16fJJ	16GGJJ
=	=	=292	=292
4.D	4.iv	16GLL	4.C
.	.	16e-	.
.	.	16c	.
.	.	16e-	.
.	.	16c	.
.	.	16e-JJ	.
=	=	=293	=293
4.D	4.iv6	16GLL	4.E-
.	.	16e-	.
.	.	16c	.
.	.	16e-	.
.	.	16c	.
.	.	16e-JJ	.
=	=	=294	=294
4.D	4.N6	16A-LL	4.C
.	.	16e-	.
.	.	16c	.
.	.	16e-	.
.	.	16c	.
.	.	16e-JJ	.
=	=	=295	=295
4.D	4.N	16A-LL	4.AA-
.	.	16e-	.
.	.	16c	.
.	.	16e-	.
.	.	16c	.
.	.	16e-JJ	.
=	=	=296	=296
4.D	4.viio7	16AnLL	4.FF#
.	.	16e-	.
.	.	16c	.
.	.	16e-	.
.	.	16c	.
.	.	16e-JJ	.
=	=	=297	=297
4.D	4.viio2	16AnLL	4.EE-
.	.	16e-	.
.	.	16c	.
.	.	16e-	.
.	.	16c	.
.	.	16e-JJ	.
=	=	=298	=298
4.D	4.viio43	16cnLL	4.CC
.	.	16f#	.
.	.	16e-	.
.	.	16f#	.
.	.	16e-	.
.	.	16f#JJ	.
=	=	=299	=299
4.D	4.viio6	16cnLL	4.AAAn
.	.	16f#	.
.	.	16e-	.
.	.	16f#	.
.	.	16e-	.
.	.	16f#JJ	.
=	=	=300	=300
4.D	4.viio	4c; 4a;	[4FFF#;
.	.	8r	16FFF#LL]
.	.	.	16AAAJJ
=	=	=301	=301
4.D	4.V	4.r	16DDLL
.	.	.	16FF#
.	.	.	16AA
.	.	.	16D
.	.	.	16F#
.	.	.	16AJJ
=	=	=302	=302
4.D	4.V	16dLL	4.r
.	.	16f#	.
.	.	16a	.
.	.	16dd	.
.	.	16ff#	.
.	.	16aaJJ	.
=	=	=303	=303
4.D	4.V7	8ccc	4.r
.	.	8r	.
.	.	8r	.
*	*	*	*clefG2
=	=	=304	=304
4.D	4.V7	8cc'L 8ff#'	8d'L 8a'
.	.	8cc' 8ff#'	8d' 8a'
.	.	(8ccJ 8ff#	(8dJ 8a
=	=	=305	=305
4.D	4.vi	8b) 8gg	8e) 8g
.	.	8r	8r
.	.	8r	8r
=	=	=306	=306
4.D	4.V7/vi	8a'L 8dd#'	8B'L 8f#'
.	.	8a' 8dd#'	8B' 8f#'
.	.	(8aJ 8dd#	(8BJ 8f#
=	=	=307	=307
4D	4IV	8g) 8ee	8c) 8e
.	.	8r	8r
*	*	*	*clefF4
8D	8viio7/ii	(8f 8b	(8G# 8d
=	=	=308	=308
4D	4ii	8e) 8cc	8A) 8c
.	.	8r	8r
*	*	*	*clefF4
8D	8Cto7	(8gn 8cc#	(8A# 8e
=	=	=309	=309
4D	4I6	8f#) 8dd	8B) 8d
.	.	8r	8r
*	*	*	*clefF4
8+D	8I6+	(8gn 8dd#	(8BB 8B
=	=	=310	=310
4D	4IV	8g) 8ee	8C) 8c
.	.	8r	8r
8D	8V65/V	8en 8g 8a	(8CC# 8C#
=	=	=311	=311
4.D	4.I64	4.d 4.g [4.b	4.DD) 4.D
=	=	=312	=312
4.D	4.I64	(32bLLL]	4.r
.	.	32dd	.
.	.	32cc	.
.	.	32bJJ	.
.	.	32ccLL	.
.	.	32dd	.
.	.	32ee	.
.	.	32ff#JJ	.
.	.	32ggLL	.
.	.	32aa	.
.	.	32bb	.
.	.	32cccJJJ	.
=	=	=313	=313
4.D	4.I64	8ddd)	4.r
.	.	8r	.
.	.	16.r	.
.	.	32g	.
=	=	=314	=314
4.D	4.V7	[4cc	4.r
.	.	16.ccLK]	.
.	.	96bLLL	.
.	.	96a	.
.	.	96gJJJJ	.
=	=	=315	=315
4.D	4.V7	[4.a	4.r
=	=	=316	=316
4.D	4.V7	4.a_	4.r
=	=	=317	=317
4.D	4.V7	4a]	[4.D [4.F# [4.c
.	.	8g	.
=	=	=318	=318
4.D	4.V7	(8bL	4.D] 4.F#] 4.c]
.	.	8.a)	.
.	.	16g'Jk	.
=	=	=||	=||
*-	*-	*-	*-
